third_party/noto/noto_2/emoji_u1f4ee.svg

<svg enable-background="new 0 0 128 128" version="1.1" viewBox="0 0 128 128" xmlns="http://www.w3.org/2000/svg"><path d="m32.59 3.72h63.1c2.15 0 4.1 1.24 5.02 3.19l4.18 10.51h-81.79l4.53-10.64c0.95-1.88 2.86-3.06 4.96-3.06z" fill="#C62828"/><rect x="52.89" y="87.12" width="22.22" height="36.88" fill="#78A3AC"/><path d="m74.99 95.37h-22.1v18.99s3.4-2.26 10.7-1.29c7.83 1.03 11.4 6.46 11.4 6.46v-24.16z" fill="#4B727B"/><path d="m101.84 107.87h-75.68c-1.91 0-3.45-1.54-3.45-3.45v-85.41c0-1.91 1.54-3.45 3.45-3.45h75.67c1.91 0 3.45 1.54 3.45 3.45v85.41c0.01 1.9-1.54 3.45-3.44 3.45z" fill="#F44336"/><path d="m94.51 99.57h-61.02c-1.85 0-3.35-1.5-3.35-3.35v-31.16c0-1.85 1.5-3.35 3.35-3.35h61.03c1.85 0 3.35 1.5 3.35 3.35v31.16c-0.01 1.85-1.51 3.35-3.36 3.35z" fill="none" stroke="#C62828" stroke-miterlimit="10" stroke-width="1.8609"/><path d="m45.24 82.45c-0.08 0.79 0.54 1.47 1.33 1.47h49.65c0.85 0 1.48-0.78 1.31-1.61l-6.73-37.2s5.62-0.18 5.88-2.56-0.11-2.75-0.19-5.21c-0.08-2.47-7.3-8.02-7.3-8.02l-52.92 2.5 4.49 10.85 7.28 0.13 0.38 12.34-3.18 27.31z" fill="#C62828"/><path d="m85.15 43.63h-42.3c-1.15 0-2.09-0.93-2.09-2.09v-5.96h46.48v5.96c0 1.15-0.93 2.09-2.09 2.09z" fill="#4E342E"/><path d="m82.07 31.63 9.63 39.78c0.24 1.22-0.81 1.44-1.81 1.44h-51.26c-1 0-2.06-0.33-1.81-1.44l9.11-39.78c0-0.79 0.81-1.44 1.81-1.44h32.53c0.99 0 1.43 0.31 1.8 1.44z" fill="#fff"/><polygon points="84.71 42.26 43.47 42.37 45.52 33.43 82.24 32.31" fill="#E0E0E0"/><path d="m89.79 70.74-25.95-15.79 3.32-2.52c2.07-1.78 2.04-4.43-0.07-6.18l-3.48-2.9 16.81-11.81c0.3-0.23 0.42-0.43 0.22-0.64-0.13-0.13-0.37-0.1-0.64 0.09l-18.02 11.01-13.28-11.08c-0.24-0.21-1.08-0.14-0.41 0.5l16.42 15.64c1.45 1.36 1.39 3.08-0.45 4.66l-25.51 19.12c-0.24 0.21-0.58 0.48-0.4 0.76 0.21 0.33 0.72 0.15 0.95-0.07l21.57-14.8 28.48 14.56s0.64 0.43 0.85 0.11-0.41-0.66-0.41-0.66z" fill="#6FBFF0" stroke="#6FBFF0" stroke-miterlimit="10"/><path d="m88.37 35.58h-49.9c-1.22 0-2.21-0.99-2.21-2.21v-1.56l53.74-4.78 0.79 6.11c0.01 1.35-1.08 2.44-2.42 2.44z" fill="#F44336"/><path d="m86.86 33.37h-46.76c-1.88 0-3.26-1.45-2.81-2.95 0 0 0.92-3.74 2.21-3.74h48.3c1.29 0 1.26 3.88 1.26 3.88 0.45 1.5-0.32 2.81-2.2 2.81z" fill="#FF7555"/><path d="m38.73 26.87c0.66-0.36 3.93-0.63 3.77 0.53-0.07 0.5-0.63 3.67-0.91 4.39-0.23 0.58-0.17 1.6-1.49 1.59-0.51 0-2.67-0.01-3.07-0.22-0.76-0.4-0.28-1.25-0.1-1.84 0.67-2.12 1.31-4.19 1.8-4.45z" fill="#FF9D83"/><g opacity=".3"><polygon points="93.92 62.64 89.67 62.64 89.2 60.78 93.61 60.78" fill="#4E342E"/></g></svg>

<?xml version="1.0" encoding="utf-8"?>
<!-- Generator: Adobe Illustrator 25.2.3, SVG Export Plug-In . SVG Version: 6.00 Build 0)  -->
<svg version="1.1" id="Layer_2" xmlns="http://www.w3.org/2000/svg" xmlns:xlink="http://www.w3.org/1999/xlink" x="0px" y="0px"
	 viewBox="0 0 128 128" style="enable-background:new 0 0 128 128;" xml:space="preserve">
<g>
	<path style="fill:#C62828;" d="M32.59,3.72h63.1c2.15,0,4.1,1.24,5.02,3.19l4.18,10.51H23.1l4.53-10.64
		C28.58,4.9,30.49,3.72,32.59,3.72z"/>
	<rect x="52.89" y="87.12" style="fill:#78A3AC;" width="22.22" height="36.88"/>
	<path style="fill:#4B727B;" d="M74.99,95.37h-22.1v18.99c0,0,3.4-2.26,10.7-1.29c7.83,1.03,11.4,6.46,11.4,6.46V95.37z"/>
	<path style="fill:#F44336;" d="M101.84,107.87H26.16c-1.91,0-3.45-1.54-3.45-3.45V19.01c0-1.91,1.54-3.45,3.45-3.45h75.67
		c1.91,0,3.45,1.54,3.45,3.45v85.41C105.29,106.32,103.74,107.87,101.84,107.87z"/>
	<path style="fill:none;stroke:#C62828;stroke-width:1.8609;stroke-miterlimit:10;" d="M94.51,99.57H33.49
		c-1.85,0-3.35-1.5-3.35-3.35V65.06c0-1.85,1.5-3.35,3.35-3.35h61.03c1.85,0,3.35,1.5,3.35,3.35v31.16
		C97.86,98.07,96.36,99.57,94.51,99.57z"/>
	<path style="fill:#C62828;" d="M45.24,82.45c-0.08,0.79,0.54,1.47,1.33,1.47h49.65c0.85,0,1.48-0.78,1.31-1.61L90.8,45.11
		c0,0,5.62-0.18,5.88-2.56c0.26-2.38-0.11-2.75-0.19-5.21c-0.08-2.47-7.3-8.02-7.3-8.02l-52.92,2.5l4.49,10.85l7.28,0.13l0.38,12.34
		L45.24,82.45z"/>
	<path style="fill:#4E342E;" d="M85.15,43.63H42.85c-1.15,0-2.09-0.93-2.09-2.09v-5.96h46.48v5.96
		C87.24,42.69,86.31,43.63,85.15,43.63z"/>
	<g>
		<path style="fill:#FFFFFF;" d="M82.07,31.63l9.63,39.78c0.24,1.22-0.81,1.44-1.81,1.44H38.63c-1,0-2.06-0.33-1.81-1.44l9.11-39.78
			c0-0.79,0.81-1.44,1.81-1.44h32.53C81.26,30.19,81.7,30.5,82.07,31.63z"/>
		<polygon style="fill:#E0E0E0;" points="84.71,42.26 43.47,42.37 45.52,33.43 82.24,32.31 		"/>
		<path style="fill:#6FBFF0;stroke:#6FBFF0;stroke-miterlimit:10;" d="M89.79,70.74L63.84,54.95l3.32-2.52
			c2.07-1.78,2.04-4.43-0.07-6.18l-3.48-2.9l16.81-11.81c0.3-0.23,0.42-0.43,0.22-0.64c-0.13-0.13-0.37-0.1-0.64,0.09L61.98,42
			L48.7,30.92c-0.24-0.21-1.08-0.14-0.41,0.5l16.42,15.64c1.45,1.36,1.39,3.08-0.45,4.66L38.75,70.84c-0.24,0.21-0.58,0.48-0.4,0.76
			c0.21,0.33,0.72,0.15,0.95-0.07l21.57-14.8l28.48,14.56c0,0,0.64,0.43,0.85,0.11S89.79,70.74,89.79,70.74z"/>
	</g>
	<path style="fill:#F44336;" d="M88.37,35.58h-49.9c-1.22,0-2.21-0.99-2.21-2.21v-1.56l53.74-4.78l0.79,6.11
		C90.8,34.49,89.71,35.58,88.37,35.58z"/>
	<path style="fill:#FF7555;" d="M86.86,33.37H40.1c-1.88,0-3.26-1.45-2.81-2.95c0,0,0.92-3.74,2.21-3.74h48.3
		c1.29,0,1.26,3.88,1.26,3.88C89.51,32.06,88.74,33.37,86.86,33.37z"/>
	<path style="fill:#FF9D83;" d="M38.73,26.87c0.66-0.36,3.93-0.63,3.77,0.53c-0.07,0.5-0.63,3.67-0.91,4.39
		c-0.23,0.58-0.17,1.6-1.49,1.59c-0.51,0-2.67-0.01-3.07-0.22c-0.76-0.4-0.28-1.25-0.1-1.84C37.6,29.2,38.24,27.13,38.73,26.87z"/>
	<g style="opacity:0.3;">
		<polygon style="fill:#4E342E;" points="93.92,62.64 89.67,62.64 89.2,60.78 93.61,60.78 		"/>
	</g>
</g>
</svg>
